Numix-Circle/48x48/apps/sweethome3d.svg

<svg xmlns="http://www.w3.org/2000/svg" viewBox="0 0 48 48"><defs><linearGradient id="linearGradient3764" x1="1" x2="47" gradientUnits="userSpaceOnUse" gradientTransform="matrix(0,-1,1,0,-1.5e-6,47.999998)"><stop stop-color="#e4e4e4" stop-opacity="1"/><stop offset="1" stop-color="#eee" stop-opacity="1"/></linearGradient></defs><g><path d="m 36.31 5 c 5.859 4.062 9.688 10.831 9.688 18.5 c 0 12.426 -10.07 22.5 -22.5 22.5 c -7.669 0 -14.438 -3.828 -18.5 -9.688 c 1.037 1.822 2.306 3.499 3.781 4.969 c 4.085 3.712 9.514 5.969 15.469 5.969 c 12.703 0 23 -10.298 23 -23 c 0 -5.954 -2.256 -11.384 -5.969 -15.469 c -1.469 -1.475 -3.147 -2.744 -4.969 -3.781 z m 4.969 3.781 c 3.854 4.113 6.219 9.637 6.219 15.719 c 0 12.703 -10.297 23 -23 23 c -6.081 0 -11.606 -2.364 -15.719 -6.219 c 4.16 4.144 9.883 6.719 16.219 6.719 c 12.703 0 23 -10.298 23 -23 c 0 -6.335 -2.575 -12.06 -6.719 -16.219 z" opacity="0.05"/><path d="m 41.28 8.781 c 3.712 4.085 5.969 9.514 5.969 15.469 c 0 12.703 -10.297 23 -23 23 c -5.954 0 -11.384 -2.256 -15.469 -5.969 c 4.113 3.854 9.637 6.219 15.719 6.219 c 12.703 0 23 -10.298 23 -23 c 0 -6.081 -2.364 -11.606 -6.219 -15.719 z" opacity="0.1"/><path d="m 31.25 2.375 c 8.615 3.154 14.75 11.417 14.75 21.13 c 0 12.426 -10.07 22.5 -22.5 22.5 c -9.708 0 -17.971 -6.135 -21.12 -14.75 a 23 23 0 0 0 44.875 -7 a 23 23 0 0 0 -16 -21.875 z" opacity="0.2"/></g><g><path d="m 24 1 c 12.703 0 23 10.297 23 23 c 0 12.703 -10.297 23 -23 23 -12.703 0 -23 -10.297 -23 -23 0 -12.703 10.297 -23 23 -23 z" fill-opacity="1" fill="url(#linearGradient3764)"/></g><g><path d="m 40.03 7.531 c 3.712 4.084 5.969 9.514 5.969 15.469 0 12.703 -10.297 23 -23 23 c -5.954 0 -11.384 -2.256 -15.469 -5.969 4.178 4.291 10.01 6.969 16.469 6.969 c 12.703 0 23 -10.298 23 -23 0 -6.462 -2.677 -12.291 -6.969 -16.469 z" opacity="0.1"/></g><g opacity="0.1" fill="#000"><path d="m 27 10 l -3 1 l -11 9 l 1 0 l 0 16 l 20 0 l 3 -1 l 0 -15.666 l 1 -0.334 l -11 -9 z" fill="#000" stroke="none" fill-opacity="1"/><path d="m 18 12 1 0 c 0.554 0 1 0.446 1 1 l 0 4 c 0 0.554 -0.446 1 -1 1 l -1 0 c -0.554 0 -1 -0.446 -1 -1 l 0 -4 c 0 -0.554 0.446 -1 1 -1 z" fill="#000" stroke="none" fill-opacity="1"/></g><g transform="translate(-1,-1)"><path d="m 14 20 20 0 0 16 -20 0 z" fill="#f9f9f9" stroke="none" fill-opacity="1"/><path d="m 34 36 3 -1 0 -16 -3 1 z" fill="#999" stroke="none"/><path d="m 24 11 3 -1 11 9 -3 1 z" fill="#c83737" stroke="none"/><path d="m 18 12 1 0 c 0.554 0 1 0.446 1 1 l 0 4 c 0 0.554 -0.446 1 -1 1 l -1 0 c -0.554 0 -1 -0.446 -1 -1 l 0 -4 c 0 -0.554 0.446 -1 1 -1 z" fill="#a05a2c" stroke="none" fill-opacity="1"/><path d="m 13 20 22 0 -11 -9" fill="#de8787" stroke="none"/><path d="m 17 27 c 2 -2 4 -2 6 0 l 0 9 -6 0 z" fill="#a05a2c" stroke="none" fill-opacity="1"/><path d="m 27 22 3 0 c 0.554 0 1 0.446 1 1 l 0 3 c 0 0.554 -0.446 1 -1 1 l -3 0 c -0.554 0 -1 -0.446 -1 -1 l 0 -3 c 0 -0.554 0.446 -1 1 -1 z" fill="#acf" stroke="none" fill-opacity="1"/></g></svg>

<?xml version="1.0" encoding="UTF-8" standalone="no"?>
<svg
   xmlns:dc="http://purl.org/dc/elements/1.1/"
   xmlns:cc="http://creativecommons.org/ns#"
   xmlns:rdf="http://www.w3.org/1999/02/22-rdf-syntax-ns#"
   xmlns:svg="http://www.w3.org/2000/svg"
   xmlns="http://www.w3.org/2000/svg"
   xmlns:sodipodi="http://sodipodi.sourceforge.net/DTD/sodipodi-0.dtd"
   xmlns:inkscape="http://www.inkscape.org/namespaces/inkscape"
   viewBox="0 0 48 48"
   id="svg2"
   version="1.1"
   inkscape:version="0.91 r13725"
   width="100%"
   height="100%"
   sodipodi:docname="sweethome3d.svg">
  <metadata
     id="metadata69">
    <rdf:RDF>
      <cc:Work
         rdf:about="">
        <dc:format>image/svg+xml</dc:format>
        <dc:type
           rdf:resource="http://purl.org/dc/dcmitype/StillImage" />
      </cc:Work>
    </rdf:RDF>
  </metadata>
  <sodipodi:namedview
     pagecolor="#ffffff"
     bordercolor="#666666"
     borderopacity="1"
     objecttolerance="10"
     gridtolerance="10"
     guidetolerance="10"
     inkscape:pageopacity="0"
     inkscape:pageshadow="2"
     inkscape:window-width="1366"
     inkscape:window-height="713"
     id="namedview67"
     showgrid="true"
     inkscape:zoom="12.104167"
     inkscape:cx="11.318417"
     inkscape:cy="24"
     inkscape:window-x="0"
     inkscape:window-y="28"
     inkscape:window-maximized="1"
     inkscape:current-layer="svg2">
    <inkscape:grid
       type="xygrid"
       id="grid3046" />
  </sodipodi:namedview>
  <defs
     id="defs4">
    <linearGradient
       id="linearGradient3764"
       x1="1"
       x2="47"
       gradientUnits="userSpaceOnUse"
       gradientTransform="matrix(0,-1,1,0,-1.5e-6,47.999998)">
      <stop
         stop-color="#e4e4e4"
         stop-opacity="1"
         id="stop7" />
      <stop
         offset="1"
         stop-color="#eee"
         stop-opacity="1"
         id="stop9" />
    </linearGradient>
  </defs>
  <g
     id="g21">
    <path
       d="m 36.31 5 c 5.859 4.062 9.688 10.831 9.688 18.5 c 0 12.426 -10.07 22.5 -22.5 22.5 c -7.669 0 -14.438 -3.828 -18.5 -9.688 c 1.037 1.822 2.306 3.499 3.781 4.969 c 4.085 3.712 9.514 5.969 15.469 5.969 c 12.703 0 23 -10.298 23 -23 c 0 -5.954 -2.256 -11.384 -5.969 -15.469 c -1.469 -1.475 -3.147 -2.744 -4.969 -3.781 z m 4.969 3.781 c 3.854 4.113 6.219 9.637 6.219 15.719 c 0 12.703 -10.297 23 -23 23 c -6.081 0 -11.606 -2.364 -15.719 -6.219 c 4.16 4.144 9.883 6.719 16.219 6.719 c 12.703 0 23 -10.298 23 -23 c 0 -6.335 -2.575 -12.06 -6.719 -16.219 z"
       opacity="0.05"
       id="path23" />
    <path
       d="m 41.28 8.781 c 3.712 4.085 5.969 9.514 5.969 15.469 c 0 12.703 -10.297 23 -23 23 c -5.954 0 -11.384 -2.256 -15.469 -5.969 c 4.113 3.854 9.637 6.219 15.719 6.219 c 12.703 0 23 -10.298 23 -23 c 0 -6.081 -2.364 -11.606 -6.219 -15.719 z"
       opacity="0.1"
       id="path25" />
    <path
       d="m 31.25 2.375 c 8.615 3.154 14.75 11.417 14.75 21.13 c 0 12.426 -10.07 22.5 -22.5 22.5 c -9.708 0 -17.971 -6.135 -21.12 -14.75 a 23 23 0 0 0 44.875 -7 a 23 23 0 0 0 -16 -21.875 z"
       opacity="0.2"
       id="path27" />
  </g>
  <g
     id="g29">
    <path
       d="m 24 1 c 12.703 0 23 10.297 23 23 c 0 12.703 -10.297 23 -23 23 -12.703 0 -23 -10.297 -23 -23 0 -12.703 10.297 -23 23 -23 z"
       id="path31"
       fill-opacity="1"
       fill="url(#linearGradient3764)" />
  </g>
  <g
     id="g33" />
  <g
     id="g63">
    <path
       d="m 40.03 7.531 c 3.712 4.084 5.969 9.514 5.969 15.469 0 12.703 -10.297 23 -23 23 c -5.954 0 -11.384 -2.256 -15.469 -5.969 4.178 4.291 10.01 6.969 16.469 6.969 c 12.703 0 23 -10.298 23 -23 0 -6.462 -2.677 -12.291 -6.969 -16.469 z"
       opacity="0.1"
       id="path65" />
  </g>
  <path
     style="fill:none;stroke:#000000;stroke-width:1px;stroke-linecap:butt;stroke-linejoin:miter;stroke-opacity:1"
     d="m 58,20 0,0 0,0"
     id="path3064"
     inkscape:connector-curvature="0"
     sodipodi:nodetypes="ccc" />
  <g
     id="g3867"
     style="opacity:0.1;fill:#000000">
    <path
       style="fill:#000000;fill-opacity:1;stroke:none"
       d="M 27 10 L 24 11 L 13 20 L 14 20 L 14 36 L 34 36 L 37 35 L 37 19.333984 L 38 19 L 27 10 z "
       id="path3869" />
    <path
       style="fill:#000000;fill-opacity:1;stroke:none"
       d="m 18,12 1,0 c 0.554,0 1,0.446 1,1 l 0,4 c 0,0.554 -0.446,1 -1,1 l -1,0 c -0.554,0 -1,-0.446 -1,-1 l 0,-4 c 0,-0.554 0.446,-1 1,-1 z"
       id="path3875"
       inkscape:connector-curvature="0"
       sodipodi:nodetypes="sssssssss" />
  </g>
  <g
     id="g3858"
     transform="translate(-1,-1)">
    <path
       sodipodi:nodetypes="ccccc"
       inkscape:connector-curvature="0"
       id="rect3050"
       d="m 14,20 20,0 0,16 -20,0 z"
       style="fill:#f9f9f9;fill-opacity:1;stroke:none" />
    <path
       sodipodi:nodetypes="ccccc"
       inkscape:connector-curvature="0"
       id="path3054"
       d="m 34,36 3,-1 0,-16 -3,1 z"
       style="fill:#999999;stroke:none" />
    <path
       sodipodi:nodetypes="ccccc"
       inkscape:connector-curvature="0"
       id="path3060"
       d="m 24,11 3,-1 11,9 -3,1 z"
       style="fill:#c83737;stroke:none" />
    <path
       sodipodi:nodetypes="sssssssss"
       inkscape:connector-curvature="0"
       id="rect3850"
       d="m 18,12 1,0 c 0.554,0 1,0.446 1,1 l 0,4 c 0,0.554 -0.446,1 -1,1 l -1,0 c -0.554,0 -1,-0.446 -1,-1 l 0,-4 c 0,-0.554 0.446,-1 1,-1 z"
       style="fill:#a05a2c;fill-opacity:1;stroke:none" />
    <path
       sodipodi:nodetypes="cccc"
       inkscape:connector-curvature="0"
       id="path3058"
       d="M 13,20 35,20 24,11 Z"
       style="fill:#de8787;stroke:none" />
    <path
       sodipodi:nodetypes="ccccc"
       inkscape:connector-curvature="0"
       id="rect3838"
       d="m 17,27 c 2,-2 4,-2 6,0 l 0,9 -6,0 z"
       style="fill:#a05a2c;fill-opacity:1;stroke:none" />
    <path
       inkscape:connector-curvature="0"
       id="rect3852"
       d="m 27,22 3,0 c 0.554,0 1,0.446 1,1 l 0,3 c 0,0.554 -0.446,1 -1,1 l -3,0 c -0.554,0 -1,-0.446 -1,-1 l 0,-3 c 0,-0.554 0.446,-1 1,-1 z"
       style="fill:#aaccff;fill-opacity:1;stroke:none" />
  </g>
</svg>
